Newaita-dark/.LP/24/mintupdate-checking.svg

<?xml version="1.0" encoding="UTF-8"?>
<svg xmlns="http://www.w3.org/2000/svg" xmlns:xlink="http://www.w3.org/1999/xlink" width="24px" height="24px" viewBox="0 0 24 24" version="1.1">
<g id="surface1">
<path style=" stroke:none;fill-rule:nonzero;fill:rgb(25.882354%,25.882354%,25.882354%);fill-opacity:1;" d="M 11.90625 3.164062 C 10.984375 3.164062 10.359375 5.945312 9.503906 6.296875 C 8.652344 6.648438 6.246094 5.125 5.59375 5.78125 C 4.9375 6.433594 6.460938 8.839844 6.109375 9.691406 C 5.757812 10.546875 2.976562 11.171875 2.976562 12.09375 C 2.976562 13.019531 5.757812 13.644531 6.109375 14.496094 C 6.460938 15.351562 4.9375 17.757812 5.59375 18.410156 C 6.246094 19.0625 8.652344 17.539062 9.503906 17.894531 C 10.359375 18.246094 10.984375 21.027344 11.90625 21.027344 C 12.832031 21.027344 13.457031 18.246094 14.308594 17.894531 C 15.164062 17.539062 17.570312 19.0625 18.222656 18.410156 C 18.875 17.757812 17.351562 15.351562 17.707031 14.496094 C 18.058594 13.644531 20.839844 13.019531 20.839844 12.09375 C 20.839844 11.171875 18.058594 10.546875 17.707031 9.691406 C 17.351562 8.839844 18.875 6.433594 18.222656 5.78125 C 17.570312 5.125 15.164062 6.648438 14.308594 6.296875 C 13.457031 5.945312 12.832031 3.164062 11.90625 3.164062 Z M 11.863281 7.632812 C 12.222656 7.625 12.554688 7.808594 12.738281 8.113281 C 12.917969 8.417969 12.921875 8.800781 12.746094 9.109375 C 12.570312 9.417969 12.238281 9.609375 11.882812 9.605469 C 11.257812 9.613281 10.636719 9.851562 10.148438 10.335938 C 9.664062 10.824219 9.425781 11.445312 9.417969 12.070312 C 9.417969 12.078125 9.417969 12.085938 9.417969 12.09375 L 10.914062 12.09375 L 8.433594 15.070312 L 5.953125 12.09375 L 7.445312 12.09375 C 7.445312 12.082031 7.445312 12.066406 7.445312 12.050781 C 7.453125 10.925781 7.894531 9.796875 8.753906 8.941406 C 9.609375 8.082031 10.738281 7.640625 11.863281 7.632812 Z M 15.378906 9.117188 L 17.859375 12.09375 L 16.371094 12.09375 C 16.371094 12.109375 16.371094 12.121094 16.371094 12.136719 C 16.359375 13.261719 15.917969 14.390625 15.0625 15.25 C 14.203125 16.105469 13.074219 16.546875 11.949219 16.558594 C 11.546875 16.566406 11.179688 16.332031 11.019531 15.964844 C 10.859375 15.59375 10.941406 15.167969 11.222656 14.878906 C 11.40625 14.6875 11.664062 14.582031 11.929688 14.582031 C 12.558594 14.578125 13.179688 14.339844 13.664062 13.851562 C 14.152344 13.367188 14.390625 12.746094 14.394531 12.117188 C 14.394531 12.109375 14.394531 12.101562 14.398438 12.09375 L 12.898438 12.09375 Z M 15.378906 9.117188 "/>
</g>
</svg>

<svg xmlns="http://www.w3.org/2000/svg" width="32" height="32" viewBox="0 0 24 24"><path d="M11.906 3.164c-1.449 0-1.082 2.527-2.422 3.082-1.34.555-2.867-1.492-3.89-.465-1.028 1.024 1.02 2.551.465 3.89-.555 1.34-3.082.974-3.082 2.423 0 1.453 2.527 1.086 3.082 2.426.554 1.34-1.493 2.863-.465 3.89 1.023 1.024 2.55-1.02 3.89-.465 1.34.555.973 3.082 2.422 3.082 1.453 0 1.086-2.527 2.426-3.082 1.34-.554 2.863 1.489 3.89.465 1.024-1.027-1.019-2.55-.464-3.89.555-1.34 3.082-.973 3.082-2.426 0-1.45-2.527-1.082-3.082-2.422-.555-1.34 1.488-2.867.465-3.89-1.028-1.028-2.551 1.019-3.891.464-1.34-.555-.973-3.082-2.426-3.082zm-.117 4.477a3.964 3.964 0 0 1 3.48 2.015c.376.93-1.542 1.442-2.054.551a1.992 1.992 0 0 0-3.324.89c-.235 1.09-1.914 1.54-2.051.551a3.964 3.964 0 0 1 2.945-3.87c.336-.09.672-.133 1.004-.137zm3.477 4.12c.355 0 .656.16.707.532a3.956 3.956 0 0 1-2.942 3.871 3.96 3.96 0 0 1-4.484-1.879c-.188-.465.137-.808.601-.933.47-.125 1.075-.032 1.45.382a1.98 1.98 0 0 0 1.918.512 1.978 1.978 0 0 0 1.406-1.402c0-.64.746-1.082 1.344-1.082zm0 0" fill="#424242"/></svg>
